SVG Logos/APIs/graphcms.svg

<svg xmlns="http://www.w3.org/2000/svg" fill="none" viewBox="0 0 804 225"><g fill="#090E24" clip-path="url(#a)"><path d="M261.365 99.576V153h-23.282v-47.04c0-2.968-.731-5.628-2.193-7.98a15.56 15.56 0 0 0-5.736-5.712c-2.362-1.4-5.005-2.1-7.929-2.1-2.925 0-5.596.7-8.014 2.1a15.56 15.56 0 0 0-5.736 5.712c-1.406 2.352-2.109 5.012-2.109 7.98V153h-23.282L183 27h23.282l.084 48.216c2.812-2.688 6.102-4.788 9.869-6.3 3.825-1.512 7.845-2.268 12.063-2.268 6.13 0 11.669 1.484 16.618 4.452 5.005 2.968 8.998 6.944 11.978 11.928 2.981 4.928 4.471 10.444 4.471 16.548ZM330.415 69h24.8l-46.226 126h-24.632l15.184-42-30.367-84h25.475l16.533 52.332L330.415 69ZM424.738 69h23.282v85.176c0 6.216-1.265 11.816-3.796 16.8-2.531 5.04-5.989 9.352-10.376 12.936-4.33 3.584-9.335 6.328-15.015 8.232-5.623 1.904-11.584 2.856-17.883 2.856a42.805 42.805 0 0 1-17.124-3.528c-5.454-2.296-10.291-5.488-14.508-9.576-4.218-4.088-7.508-8.792-9.87-14.112l21.257-9.66c1.181 2.8 2.784 5.208 4.809 7.224a21.789 21.789 0 0 0 7.085 4.62c2.7 1.12 5.483 1.68 8.351 1.68 3.093 0 6.046-.364 8.858-1.092 2.868-.728 5.426-1.82 7.676-3.276 2.249-1.456 4.021-3.276 5.314-5.46 1.293-2.184 1.94-4.732 1.94-7.644v-9.744c-2.587 3.192-5.736 5.796-9.447 7.812-3.656 1.96-7.902 2.94-12.738 2.94-6.073 0-11.781-1.148-17.124-3.444-5.286-2.296-9.954-5.46-14.003-9.492-4.049-4.088-7.226-8.792-9.532-14.112-2.305-5.32-3.458-11.032-3.458-17.136 0-6.104 1.153-11.816 3.458-17.136 2.306-5.32 5.483-9.996 9.532-14.028a44.463 44.463 0 0 1 14.003-9.576c5.343-2.296 11.051-3.444 17.124-3.444 4.836 0 9.082 1.008 12.738 3.024 3.711 1.96 6.86 4.536 9.447 7.728V69Zm-21.848 63.924c3.825 0 7.283-.98 10.376-2.94 3.093-2.016 5.511-4.676 7.254-7.98 1.8-3.304 2.7-6.972 2.7-11.004 0-4.032-.9-7.7-2.7-11.004-1.743-3.36-4.161-6.02-7.254-7.98-3.093-1.96-6.551-2.94-10.376-2.94-3.767 0-7.226.98-10.375 2.94-3.093 1.96-5.567 4.62-7.423 7.98-1.856 3.304-2.784 6.972-2.784 11.004 0 4.032.928 7.728 2.784 11.088 1.856 3.304 4.33 5.936 7.423 7.896 3.149 1.96 6.608 2.94 10.375 2.94ZM466.022 153l-.084-84h23.281l.085 6.216c2.811-2.688 6.101-4.788 9.869-6.3 3.824-1.512 7.845-2.268 12.063-2.268 3.093 0 6.186.448 9.279 1.344l-9.195 23.436c-2.025-.84-4.077-1.26-6.158-1.26-2.924 0-5.595.7-8.014 2.1a15.56 15.56 0 0 0-5.736 5.712c-1.406 2.352-2.108 5.012-2.108 7.98V153h-23.282ZM585.316 69h23.282v84h-23.366l-1.097-8.736c-2.193 3.248-5.005 5.88-8.435 7.896-3.431 2.016-7.452 3.024-12.063 3.024-6.299 0-12.175-1.176-17.63-3.528-5.455-2.352-10.263-5.6-14.425-9.744-4.161-4.144-7.423-8.932-9.785-14.364-2.305-5.488-3.458-11.368-3.458-17.64 0-5.992 1.096-11.592 3.29-16.8a42.57 42.57 0 0 1 9.279-13.776 44.206 44.206 0 0 1 13.749-9.324c5.23-2.24 10.854-3.36 16.871-3.36 5.174 0 9.813 1.092 13.918 3.276 4.162 2.184 7.789 4.956 10.882 8.316L585.316 69Zm-22.27 63.924c3.824 0 7.283-.98 10.376-2.94 3.093-1.96 5.539-4.592 7.339-7.896 1.799-3.36 2.699-7.056 2.699-11.088 0-4.088-.9-7.784-2.699-11.088-1.8-3.304-4.246-5.936-7.339-7.896s-6.552-2.94-10.376-2.94c-3.88 0-7.395.98-10.544 2.94-3.149 1.96-5.652 4.62-7.507 7.98-1.856 3.304-2.784 6.972-2.784 11.004 0 4.032.928 7.728 2.784 11.088 1.912 3.304 4.442 5.936 7.592 7.896 3.149 1.96 6.635 2.94 10.459 2.94ZM649.607 195h-23.282V69h23.282v9.072a33.215 33.215 0 0 1 9.616-8.064c3.712-2.128 8.042-3.192 12.991-3.192 6.129 0 11.865 1.148 17.208 3.444 5.398 2.296 10.122 5.488 14.171 9.576 4.049 4.032 7.227 8.708 9.532 14.028 2.306 5.32 3.459 11.032 3.459 17.136 0 6.104-1.153 11.844-3.459 17.22-2.305 5.376-5.483 10.108-9.532 14.196-4.049 4.032-8.773 7.196-14.171 9.492-5.343 2.296-11.079 3.444-17.208 3.444-4.949 0-9.279-1.064-12.991-3.192a35.07 35.07 0 0 1-9.616-8.064V195Zm22.269-105.924c-3.824 0-7.282 1.008-10.375 3.024-3.037 1.96-5.455 4.592-7.255 7.896-1.743 3.304-2.615 6.972-2.615 11.004 0 4.032.872 7.728 2.615 11.088 1.8 3.304 4.218 5.936 7.255 7.896 3.093 1.96 6.551 2.94 10.375 2.94s7.311-.98 10.46-2.94c3.205-1.96 5.736-4.592 7.592-7.896 1.912-3.304 2.868-7 2.868-11.088 0-3.976-.928-7.616-2.784-10.92-1.856-3.36-4.386-6.02-7.592-7.98-3.149-2.016-6.664-3.024-10.544-3.024ZM804 99.576V153h-23.282v-47.04c0-2.968-.731-5.628-2.193-7.98a15.56 15.56 0 0 0-5.736-5.712c-2.362-1.4-5.005-2.1-7.929-2.1-2.925 0-5.596.7-8.014 2.1a15.56 15.56 0 0 0-5.736 5.712c-1.406 2.352-2.109 5.012-2.109 7.98V153h-23.282l-.084-126h23.282l.084 48.216c2.812-2.688 6.102-4.788 9.869-6.3 3.825-1.512 7.845-2.268 12.063-2.268 6.13 0 11.669 1.484 16.618 4.452 5.005 2.968 8.998 6.944 11.978 11.928C802.51 87.956 804 93.472 804 99.576Z"/><path fill-rule="evenodd" d="M104.769 30 78.577 45 52.386 60 26.192 75v90.001L52.386 150l26.191-15.001V105l-26.191 15V90l26.191-15 26.192-15v90l-26.192 15.001L52.386 180l-26.194 15L0 209.999 26.192 225l26.194-15.001L78.577 195l26.192-15 26.194-14.999V15L104.769 0v30Z" clip-rule="evenodd"/></g><defs><clipPath id="a"><path fill="#fff" d="M0 0h804v225H0z"/></clipPath></defs></svg>

<svg width="804" height="225" viewBox="0 0 804 225" fill="none" xmlns="http://www.w3.org/2000/svg">
<g clip-path="url(#clip0_3522_2257)">
<path d="M261.365 99.576V153H238.083V105.96C238.083 102.992 237.352 100.332 235.89 97.98C234.484 95.572 232.572 93.668 230.154 92.268C227.792 90.868 225.149 90.168 222.225 90.168C219.3 90.168 216.629 90.868 214.211 92.268C211.793 93.668 209.881 95.572 208.475 97.98C207.069 100.332 206.366 102.992 206.366 105.96V153H183.084L183 27H206.282L206.366 75.216C209.178 72.528 212.468 70.428 216.235 68.916C220.06 67.404 224.08 66.648 228.298 66.648C234.428 66.648 239.967 68.132 244.916 71.1C249.921 74.068 253.914 78.044 256.894 83.028C259.875 87.956 261.365 93.472 261.365 99.576Z" fill="#090E24"/>
<path d="M330.415 69H355.215L308.989 195H284.357L299.541 153L269.174 69H294.649L311.182 121.332L330.415 69Z" fill="#090E24"/>
<path d="M424.738 69H448.02V154.176C448.02 160.392 446.755 165.992 444.224 170.976C441.693 176.016 438.235 180.328 433.848 183.912C429.518 187.496 424.513 190.24 418.833 192.144C413.21 194.048 407.249 195 400.95 195C394.989 195 389.281 193.824 383.826 191.472C378.372 189.176 373.535 185.984 369.318 181.896C365.1 177.808 361.81 173.104 359.448 167.784L380.705 158.124C381.886 160.924 383.489 163.332 385.514 165.348C387.594 167.364 389.956 168.904 392.599 169.968C395.299 171.088 398.082 171.648 400.95 171.648C404.043 171.648 406.996 171.284 409.808 170.556C412.676 169.828 415.234 168.736 417.484 167.28C419.733 165.824 421.505 164.004 422.798 161.82C424.091 159.636 424.738 157.088 424.738 154.176V144.432C422.151 147.624 419.002 150.228 415.291 152.244C411.635 154.204 407.389 155.184 402.553 155.184C396.48 155.184 390.772 154.036 385.429 151.74C380.143 149.444 375.475 146.28 371.426 142.248C367.377 138.16 364.2 133.456 361.894 128.136C359.589 122.816 358.436 117.104 358.436 111C358.436 104.896 359.589 99.184 361.894 93.864C364.2 88.544 367.377 83.868 371.426 79.836C375.475 75.748 380.143 72.556 385.429 70.26C390.772 67.964 396.48 66.816 402.553 66.816C407.389 66.816 411.635 67.824 415.291 69.84C419.002 71.8 422.151 74.376 424.738 77.568V69ZM402.89 132.924C406.715 132.924 410.173 131.944 413.266 129.984C416.359 127.968 418.777 125.308 420.52 122.004C422.32 118.7 423.22 115.032 423.22 111C423.22 106.968 422.32 103.3 420.52 99.996C418.777 96.636 416.359 93.976 413.266 92.016C410.173 90.056 406.715 89.076 402.89 89.076C399.123 89.076 395.664 90.056 392.515 92.016C389.422 93.976 386.948 96.636 385.092 99.996C383.236 103.3 382.308 106.968 382.308 111C382.308 115.032 383.236 118.728 385.092 122.088C386.948 125.392 389.422 128.024 392.515 129.984C395.664 131.944 399.123 132.924 402.89 132.924Z" fill="#090E24"/>
<path d="M466.022 153L465.938 69H489.219L489.304 75.216C492.115 72.528 495.405 70.428 499.173 68.916C502.997 67.404 507.018 66.648 511.236 66.648C514.329 66.648 517.422 67.096 520.515 67.992L511.32 91.428C509.295 90.588 507.243 90.168 505.162 90.168C502.238 90.168 499.567 90.868 497.148 92.268C494.73 93.668 492.818 95.572 491.412 97.98C490.006 100.332 489.304 102.992 489.304 105.96V153H466.022Z" fill="#090E24"/>
<path d="M585.316 69H608.598V153H585.232L584.135 144.264C581.942 147.512 579.13 150.144 575.7 152.16C572.269 154.176 568.248 155.184 563.637 155.184C557.338 155.184 551.462 154.008 546.007 151.656C540.552 149.304 535.744 146.056 531.582 141.912C527.421 137.768 524.159 132.98 521.797 127.548C519.492 122.06 518.339 116.18 518.339 109.908C518.339 103.916 519.435 98.316 521.629 93.108C523.822 87.9 526.915 83.308 530.908 79.332C534.9 75.356 539.484 72.248 544.657 70.008C549.887 67.768 555.511 66.648 561.528 66.648C566.702 66.648 571.341 67.74 575.446 69.924C579.608 72.108 583.235 74.88 586.328 78.24L585.316 69ZM563.046 132.924C566.87 132.924 570.329 131.944 573.422 129.984C576.515 128.024 578.961 125.392 580.761 122.088C582.56 118.728 583.46 115.032 583.46 111C583.46 106.912 582.56 103.216 580.761 99.912C578.961 96.608 576.515 93.976 573.422 92.016C570.329 90.056 566.87 89.076 563.046 89.076C559.166 89.076 555.651 90.056 552.502 92.016C549.353 93.976 546.85 96.636 544.995 99.996C543.139 103.3 542.211 106.968 542.211 111C542.211 115.032 543.139 118.728 544.995 122.088C546.907 125.392 549.437 128.024 552.587 129.984C555.736 131.944 559.222 132.924 563.046 132.924Z" fill="#090E24"/>
<path d="M649.607 195H626.325V69H649.607V78.072C652.306 74.768 655.511 72.08 659.223 70.008C662.935 67.88 667.265 66.816 672.214 66.816C678.343 66.816 684.079 67.964 689.422 70.26C694.82 72.556 699.544 75.748 703.593 79.836C707.642 83.868 710.82 88.544 713.125 93.864C715.431 99.184 716.584 104.896 716.584 111C716.584 117.104 715.431 122.844 713.125 128.22C710.82 133.596 707.642 138.328 703.593 142.416C699.544 146.448 694.82 149.612 689.422 151.908C684.079 154.204 678.343 155.352 672.214 155.352C667.265 155.352 662.935 154.288 659.223 152.16C655.511 150.032 652.306 147.344 649.607 144.096V195ZM671.876 89.076C668.052 89.076 664.594 90.084 661.501 92.1C658.464 94.06 656.046 96.692 654.246 99.996C652.503 103.3 651.631 106.968 651.631 111C651.631 115.032 652.503 118.728 654.246 122.088C656.046 125.392 658.464 128.024 661.501 129.984C664.594 131.944 668.052 132.924 671.876 132.924C675.7 132.924 679.187 131.944 682.336 129.984C685.541 128.024 688.072 125.392 689.928 122.088C691.84 118.784 692.796 115.088 692.796 111C692.796 107.024 691.868 103.384 690.012 100.08C688.156 96.72 685.626 94.06 682.42 92.1C679.271 90.084 675.756 89.076 671.876 89.076Z" fill="#090E24"/>
<path d="M804 99.576V153H780.718V105.96C780.718 102.992 779.987 100.332 778.525 97.98C777.119 95.572 775.207 93.668 772.789 92.268C770.427 90.868 767.784 90.168 764.86 90.168C761.935 90.168 759.264 90.868 756.846 92.268C754.428 93.668 752.516 95.572 751.11 97.98C749.704 100.332 749.001 102.992 749.001 105.96V153H725.719L725.635 27H748.917L749.001 75.216C751.813 72.528 755.103 70.428 758.87 68.916C762.695 67.404 766.715 66.648 770.933 66.648C777.063 66.648 782.602 68.132 787.551 71.1C792.556 74.068 796.549 78.044 799.529 83.028C802.51 87.956 804 93.472 804 99.576Z" fill="#090E24"/>
<path fill-rule="evenodd" clip-rule="evenodd" d="M104.769 29.9996L78.5773 45.0004L52.3856 59.9991L26.1917 75V105V120V134.999V150V165.001L52.3856 150L78.5773 134.999V120V105L52.3856 120V90.0009L78.5773 75L104.769 59.9991V75V90.0009V105V120V134.999V150L78.5773 165.001L52.3856 180L26.1917 195L0 209.999L26.1917 225L52.3856 209.999L78.5773 195L104.769 180L130.963 165.001V134.999V105V75V63.494V45.0004V15.0009L104.769 0V29.9996Z" fill="#090E24"/>
</g>
<defs>
<clipPath id="clip0_3522_2257">
<rect width="804" height="225" fill="white"/>
</clipPath>
</defs>
</svg>
